Numix/22x22/mimetypes/application-ascii.svg

<?xml version="1.0" encoding="UTF-8" standalone="no"?>
<svg
   xmlns:dc="http://purl.org/dc/elements/1.1/"
   xmlns:cc="http://creativecommons.org/ns#"
   xmlns:rdf="http://www.w3.org/1999/02/22-rdf-syntax-ns#"
   xmlns:svg="http://www.w3.org/2000/svg"
   xmlns="http://www.w3.org/2000/svg"
   xmlns:sodipodi="http://sodipodi.sourceforge.net/DTD/sodipodi-0.dtd"
   xmlns:inkscape="http://www.inkscape.org/namespaces/inkscape"
   width="22"
   height="22"
   viewBox="0 0 22 22"
   id="svg2"
   version="1.1"
   inkscape:version="0.48.5 r10040"
   sodipodi:docname="application-ascii.svg">
  <metadata
     id="metadata26">
    <rdf:RDF>
      <cc:Work
         rdf:about="">
        <dc:format>image/svg+xml</dc:format>
        <dc:type
           rdf:resource="http://purl.org/dc/dcmitype/StillImage" />
      </cc:Work>
    </rdf:RDF>
  </metadata>
  <defs
     id="defs24" />
  <sodipodi:namedview
     pagecolor="#ffffff"
     bordercolor="#666666"
     borderopacity="1"
     objecttolerance="10"
     gridtolerance="10"
     guidetolerance="10"
     inkscape:pageopacity="0"
     inkscape:pageshadow="2"
     inkscape:window-width="1280"
     inkscape:window-height="970"
     id="namedview22"
     showgrid="true"
     inkscape:zoom="30.341309"
     inkscape:cx="14.093012"
     inkscape:cy="9.9934524"
     inkscape:window-x="0"
     inkscape:window-y="0"
     inkscape:window-maximized="1"
     inkscape:current-layer="svg2">
    <inkscape:grid
       type="xygrid"
       id="grid3014" />
  </sodipodi:namedview>
  <path
     style="fill:#dcdcdc"
     d="M 4.0000004,1e-7 C 3.527343,1e-7 3,0.5273441 3,1.0000001 L 3,21 c 0,0.445312 0.554687,1 1.0000004,1 L 18,22 c 0.445313,0 0.992367,-0.554753 1,-1 L 19,6.0000001 13,9.9999999e-8 z"
     id="path4"
     inkscape:connector-curvature="0"
     sodipodi:nodetypes="ssssssccs" />
  <path
     style="fill:#000000;fill-opacity:0.19599998"
     d="M 14,6.0000001 19,11 19,6.0000001 z"
     id="path6"
     inkscape:connector-curvature="0"
     sodipodi:nodetypes="cccc" />
  <path
     style="fill:#ffffff;fill-opacity:0.39200003"
     d="m 13,1e-7 6,6 -5,0 c -0.445312,0 -1,-0.554688 -1,-1 z"
     id="path8"
     inkscape:connector-curvature="0"
     sodipodi:nodetypes="ccssc" />
  <g
     style="fill:#545454"
     id="g10"
     transform="matrix(1.0906877,0,0,1.16098,-0.99756496,-2.0292292)">
    <path
       d="m 6.425781,14.582031 -0.152343,-0.910156 -0.867188,0 -0.148438,0.910156 -0.675781,0 c 0.15625,-0.777343 0.3125,-1.484375 0.46875,-2.125 0.160157,-0.640625 0.3125,-1.25 0.457031,-1.824219 l 0.707032,0 c 0.15625,0.578126 0.308594,1.191407 0.457031,1.84375 0.15625,0.648438 0.304687,1.347657 0.449219,2.105469 l -0.695313,0 M 5.847656,11.398438 C 5.8125,11.546875 5.777344,11.6875 5.746094,11.824219 5.71875,11.957031 5.691406,12.089844 5.664062,12.222656 c -0.027343,0.125 -0.050781,0.257813 -0.074218,0.386719 -0.023438,0.132813 -0.042969,0.269531 -0.0625,0.410156 l 0.636718,0 C 6.140625,12.878906 6.121094,12.742188 6.097656,12.609375 6.078125,12.480469 6.054688,12.347656 6.027344,12.222656 6,12.089844 5.972656,11.957031 5.941406,11.824219 5.914062,11.6875 5.882812,11.546875 5.847656,11.398438"
       id="path12"
       inkscape:connector-curvature="0" />
    <path
       d="m 8.390625,14.007812 c 0.105469,0 0.195313,-0.01172 0.265625,-0.03516 0.074219,-0.03125 0.132812,-0.07031 0.175781,-0.117187 C 8.875,13.804688 8.902344,13.75 8.914062,13.691406 8.933594,13.625 8.941406,13.5625 8.941406,13.5 c 0,-0.08203 -0.019531,-0.15625 -0.058594,-0.21875 C 8.84375,13.21875 8.796875,13.160156 8.738281,13.113281 8.675781,13.0625 8.609375,13.019531 8.535156,12.980469 8.460938,12.9375 8.390625,12.898438 8.316406,12.867188 8.21875,12.824219 8.117188,12.773438 8.011719,12.71875 7.90625,12.664062 7.808594,12.59375 7.71875,12.507812 7.636719,12.421875 7.566406,12.320312 7.511719,12.195312 7.453125,12.066406 7.425781,11.910156 7.425781,11.722656 c 0,-0.371094 0.097657,-0.660156 0.292969,-0.867187 0.203125,-0.210938 0.476562,-0.3125 0.824219,-0.3125 0.199219,0 0.371093,0.02734 0.519531,0.08203 0.152344,0.05469 0.277344,0.117188 0.378906,0.183594 l -0.1875,0.609375 c -0.089844,-0.0625 -0.1875,-0.113281 -0.296875,-0.15625 -0.105469,-0.03906 -0.226562,-0.0625 -0.367187,-0.0625 -0.34375,0 -0.515625,0.152343 -0.515625,0.453125 0,0.07813 0.015625,0.144531 0.050781,0.203125 0.035156,0.05859 0.078125,0.109375 0.132812,0.15625 0.054688,0.04297 0.117188,0.07813 0.183594,0.113281 0.070313,0.03516 0.140625,0.06641 0.207032,0.09766 0.101562,0.04687 0.207031,0.09766 0.3125,0.15625 0.113281,0.05859 0.214843,0.132813 0.308593,0.230469 0.09375,0.09375 0.171875,0.214844 0.230469,0.359375 0.058594,0.140625 0.089844,0.320312 0.089844,0.535156 0,0.371094 -0.101563,0.660156 -0.300782,0.863282 -0.195312,0.199218 -0.496093,0.300781 -0.898437,0.300781 -0.273437,0 -0.488281,-0.03516 -0.648437,-0.101563 -0.160157,-0.07422 -0.28125,-0.140625 -0.363282,-0.199218 l 0.1875,-0.640626 c 0.097656,0.07031 0.207032,0.132813 0.339844,0.191407 0.132812,0.0625 0.292969,0.08984 0.484375,0.08984"
       id="path14"
       inkscape:connector-curvature="0" />
    <path
       d="m 11.359375,14.667969 c -0.460937,0 -0.8125,-0.179688 -1.054687,-0.539063 -0.242188,-0.355468 -0.363282,-0.863281 -0.363282,-1.523437 0,-0.328125 0.039063,-0.621094 0.109375,-0.875 0.07422,-0.257813 0.175781,-0.472657 0.308594,-0.644531 0.132813,-0.179688 0.289063,-0.3125 0.46875,-0.402344 0.179687,-0.09375 0.378906,-0.140625 0.59375,-0.140625 0.113281,0 0.21875,0.01172 0.308594,0.03906 0.09766,0.01953 0.179687,0.04297 0.25,0.07422 0.07031,0.03125 0.125,0.0625 0.171875,0.09766 0.05078,0.03125 0.08594,0.05859 0.109375,0.07422 l -0.167969,0.625 c -0.07813,-0.0625 -0.179688,-0.117187 -0.292969,-0.15625 -0.113281,-0.04687 -0.242187,-0.07031 -0.390625,-0.07031 -0.101562,0 -0.203125,0.02344 -0.300781,0.07031 -0.09375,0.03906 -0.179687,0.117187 -0.257813,0.222656 -0.07422,0.101563 -0.132812,0.238281 -0.183593,0.414063 -0.04687,0.175781 -0.06641,0.390625 -0.06641,0.652344 0,0.449218 0.0625,0.796874 0.1875,1.039062 0.128907,0.238281 0.339844,0.359375 0.632813,0.359375 0.167969,0 0.304687,-0.02344 0.414063,-0.07031 0.113281,-0.04687 0.203124,-0.09375 0.269531,-0.140624 l 0.164062,0.617187 c -0.09375,0.07031 -0.21875,0.132813 -0.375,0.191406 -0.152343,0.05859 -0.332031,0.08594 -0.535156,0.08594"
       id="path16"
       inkscape:connector-curvature="0" />
    <path
       d="m 12.714844,14.582031 0,-0.648437 0.710937,0 0,-2.652344 -0.710937,0 0,-0.648438 2.070312,0 0,0.648438 -0.707031,0 0,2.652344 0.707031,0 0,0.648437 -2.070312,0"
       id="path18"
       inkscape:connector-curvature="0" />
    <path
       d="m 15.347656,14.582031 0,-0.648437 0.710938,0 0,-2.652344 -0.710938,0 0,-0.648438 2.070313,0 0,0.648438 -0.707031,0 0,2.652344 0.707031,0 0,0.648437 -2.070313,0"
       id="path20"
       inkscape:connector-curvature="0" />
  </g>
</svg>

<svg width="22" xmlns="http://www.w3.org/2000/svg" height="22" viewBox="0 0 22 22" xmlns:xlink="http://www.w3.org/1999/xlink">
<path style="fill:#dcdcdc" d="M 3.667969 0.457031 C 3.195312 0.457031 2.75 0.902344 2.75 1.375 L 2.75 20.625 C 2.75 21.070312 3.222656 21.542969 3.667969 21.542969 L 18.332031 21.542969 C 18.777344 21.542969 19.25 21.070312 19.25 20.625 L 19.25 6.417969 L 13.292969 0.457031 Z "/>
<path style="fill:#000;fill-opacity:.196" d="M 13.292969 5.5 L 13.320312 5.527344 L 13.390625 5.5 Z M 14.207031 6.417969 L 19.25 11.457031 L 19.25 6.417969 Z "/>
<path style="fill:#fff;fill-opacity:.392" d="M 13.292969 0.457031 L 19.25 6.417969 L 14.207031 6.417969 C 13.761719 6.417969 13.292969 5.945312 13.292969 5.5 Z "/>
<g style="fill:#545454">
<path d="M 6.425781 14.582031 L 6.273438 13.671875 L 5.40625 13.671875 L 5.257812 14.582031 L 4.582031 14.582031 C 4.738281 13.804688 4.894531 13.097656 5.050781 12.457031 C 5.210938 11.816406 5.363281 11.207031 5.507812 10.632812 L 6.214844 10.632812 C 6.371094 11.210938 6.523438 11.824219 6.671875 12.476562 C 6.828125 13.125 6.976562 13.824219 7.121094 14.582031 L 6.425781 14.582031 M 5.847656 11.398438 C 5.8125 11.546875 5.777344 11.6875 5.746094 11.824219 C 5.71875 11.957031 5.691406 12.089844 5.664062 12.222656 C 5.636719 12.347656 5.613281 12.480469 5.589844 12.609375 C 5.566406 12.742188 5.546875 12.878906 5.527344 13.019531 L 6.164062 13.019531 C 6.140625 12.878906 6.121094 12.742188 6.097656 12.609375 C 6.078125 12.480469 6.054688 12.347656 6.027344 12.222656 C 6 12.089844 5.972656 11.957031 5.941406 11.824219 C 5.914062 11.6875 5.882812 11.546875 5.847656 11.398438 "/>
<path d="M 8.390625 14.007812 C 8.496094 14.007812 8.585938 13.996094 8.65625 13.972656 C 8.730469 13.941406 8.789062 13.902344 8.832031 13.855469 C 8.875 13.804688 8.902344 13.75 8.914062 13.691406 C 8.933594 13.625 8.941406 13.5625 8.941406 13.5 C 8.941406 13.417969 8.921875 13.34375 8.882812 13.28125 C 8.84375 13.21875 8.796875 13.160156 8.738281 13.113281 C 8.675781 13.0625 8.609375 13.019531 8.535156 12.980469 C 8.460938 12.9375 8.390625 12.898438 8.316406 12.867188 C 8.21875 12.824219 8.117188 12.773438 8.011719 12.71875 C 7.90625 12.664062 7.808594 12.59375 7.71875 12.507812 C 7.636719 12.421875 7.566406 12.320312 7.511719 12.195312 C 7.453125 12.066406 7.425781 11.910156 7.425781 11.722656 C 7.425781 11.351562 7.523438 11.0625 7.71875 10.855469 C 7.921875 10.644531 8.195312 10.542969 8.542969 10.542969 C 8.742188 10.542969 8.914062 10.570312 9.0625 10.625 C 9.214844 10.679688 9.339844 10.742188 9.441406 10.808594 L 9.253906 11.417969 C 9.164062 11.355469 9.066406 11.304688 8.957031 11.261719 C 8.851562 11.222656 8.730469 11.199219 8.589844 11.199219 C 8.246094 11.199219 8.074219 11.351562 8.074219 11.652344 C 8.074219 11.730469 8.089844 11.796875 8.125 11.855469 C 8.160156 11.914062 8.203125 11.964844 8.257812 12.011719 C 8.3125 12.054688 8.375 12.089844 8.441406 12.125 C 8.511719 12.160156 8.582031 12.191406 8.648438 12.222656 C 8.75 12.269531 8.855469 12.320312 8.960938 12.378906 C 9.074219 12.4375 9.175781 12.511719 9.269531 12.609375 C 9.363281 12.703125 9.441406 12.824219 9.5 12.96875 C 9.558594 13.109375 9.589844 13.289062 9.589844 13.503906 C 9.589844 13.875 9.488281 14.164062 9.289062 14.367188 C 9.09375 14.566406 8.792969 14.667969 8.390625 14.667969 C 8.117188 14.667969 7.902344 14.632812 7.742188 14.566406 C 7.582031 14.492188 7.460938 14.425781 7.378906 14.367188 L 7.566406 13.726562 C 7.664062 13.796875 7.773438 13.859375 7.90625 13.917969 C 8.039062 13.980469 8.199219 14.007812 8.390625 14.007812 "/>
<path d="M 11.359375 14.667969 C 10.898438 14.667969 10.546875 14.488281 10.304688 14.128906 C 10.0625 13.773438 9.941406 13.265625 9.941406 12.605469 C 9.941406 12.277344 9.980469 11.984375 10.050781 11.730469 C 10.125 11.472656 10.226562 11.257812 10.359375 11.085938 C 10.492188 10.90625 10.648438 10.773438 10.828125 10.683594 C 11.007812 10.589844 11.207031 10.542969 11.421875 10.542969 C 11.535156 10.542969 11.640625 10.554688 11.730469 10.582031 C 11.828125 10.601562 11.910156 10.625 11.980469 10.65625 C 12.050781 10.6875 12.105469 10.71875 12.152344 10.753906 C 12.203125 10.785156 12.238281 10.8125 12.261719 10.828125 L 12.09375 11.453125 C 12.015625 11.390625 11.914062 11.335938 11.800781 11.296875 C 11.6875 11.25 11.558594 11.226562 11.410156 11.226562 C 11.308594 11.226562 11.207031 11.25 11.109375 11.296875 C 11.015625 11.335938 10.929688 11.414062 10.851562 11.519531 C 10.777344 11.621094 10.71875 11.757812 10.667969 11.933594 C 10.621094 12.109375 10.601562 12.324219 10.601562 12.585938 C 10.601562 13.035156 10.664062 13.382812 10.789062 13.625 C 10.917969 13.863281 11.128906 13.984375 11.421875 13.984375 C 11.589844 13.984375 11.726562 13.960938 11.835938 13.914062 C 11.949219 13.867188 12.039062 13.820312 12.105469 13.773438 L 12.269531 14.390625 C 12.175781 14.460938 12.050781 14.523438 11.894531 14.582031 C 11.742188 14.640625 11.5625 14.667969 11.359375 14.667969 "/>
<path d="M 12.714844 14.582031 L 12.714844 13.933594 L 13.425781 13.933594 L 13.425781 11.28125 L 12.714844 11.28125 L 12.714844 10.632812 L 14.785156 10.632812 L 14.785156 11.28125 L 14.078125 11.28125 L 14.078125 13.933594 L 14.785156 13.933594 L 14.785156 14.582031 L 12.714844 14.582031 "/>
<path d="M 15.347656 14.582031 L 15.347656 13.933594 L 16.058594 13.933594 L 16.058594 11.28125 L 15.347656 11.28125 L 15.347656 10.632812 L 17.417969 10.632812 L 17.417969 11.28125 L 16.710938 11.28125 L 16.710938 13.933594 L 17.417969 13.933594 L 17.417969 14.582031 L 15.347656 14.582031 "/>
</g>
</svg>
